icons/media/repeat-once-24.svg

<svg width="24" height="24" viewBox="0 0 24 24" fill="none" xmlns="http://www.w3.org/2000/svg">
<path d="M2.75 12C2.33578 12 2 11.6642 2 11.25L1.99994 9.85695C1.99922 8.37524 1.99885 7.60196 2.40872 6.79754C2.76825 6.09193 3.34192 5.51825 4.04753 5.15873C4.49175 4.93239 4.97189 4.83803 5.51853 4.79337C6.04944 4.74999 6.70506 4.75 7.5179 4.75H9.75V2.75C9.75 2.46738 9.90888 2.20875 10.161 2.081C10.4131 1.95324 10.7156 1.97806 10.9435 2.1452L14.6935 4.8952C14.8862 5.03648 15 5.2611 15 5.5C15 5.73891 14.8862 5.96353 14.6935 6.10481L10.9435 8.85481C10.7156 9.02194 10.4131 9.04676 10.161 8.91901C9.90888 8.79126 9.75 8.53263 9.75 8.25V6.25H7.55C6.69754 6.25 6.10331 6.25059 5.64068 6.28839C5.1868 6.32547 4.92604 6.3946 4.72852 6.49524C4.30515 6.71095 3.96095 7.05516 3.74523 7.47853C3.51858 7.92335 3.5 8.2987 3.5 10.05V11.25C3.5 11.6642 3.16421 12 2.75 12Z" fill="black"/>
<path d="M21.25 12C21.6642 12 22 12.3358 22 12.75L22.0001 14.1431C22.0008 15.6248 22.0011 16.398 21.5913 17.2025C21.2317 17.9081 20.6581 18.4818 19.9525 18.8413C19.5082 19.0676 19.0281 19.162 18.4815 19.2066C17.9506 19.25 17.2949 19.25 16.4821 19.25H8.25V21.25C8.25 21.5326 8.09111 21.7913 7.83901 21.919C7.5869 22.0468 7.28439 22.0219 7.05647 21.8548L3.30647 19.1048C3.11382 18.9635 3 18.7389 3 18.5C3 18.2611 3.11382 18.0365 3.30647 17.8952L7.05647 15.1452C7.28439 14.9781 7.5869 14.9532 7.83901 15.081C8.09111 15.2087 8.25 15.4674 8.25 15.75V17.75H16.45C17.3025 17.75 17.8967 17.7494 18.3593 17.7116C18.8132 17.6745 19.074 17.6054 19.2715 17.5048C19.6948 17.2891 20.039 16.9448 20.2548 16.5215C20.4814 16.0767 20.5 15.7013 20.5 13.95V12.75C20.5 12.3358 20.8358 12 21.25 12Z" fill="black"/>
<path d="M21.6195 2.09735C21.8546 2.23048 22 2.4798 22 2.75V8.25C22 8.66421 21.6642 9 21.25 9C20.8358 9 20.5 8.66421 20.5 8.25V4.07464L19.1359 4.89312C18.7807 5.10623 18.32 4.99106 18.1069 4.63587C17.8938 4.28069 18.0089 3.81999 18.3641 3.60688L20.8641 2.10688C21.0958 1.96786 21.3844 1.96422 21.6195 2.09735Z" fill="black"/>
</svg>

<svg xmlns="http://www.w3.org/2000/svg" width="24" height="24"><path d="M2.75 12a.75.75 0 01-.75-.75V9.857c0-1.482-.001-2.255.409-3.06A3.75 3.75 0 014.048 5.16c.444-.227.924-.321 1.47-.366.531-.043 1.187-.043 2-.043H9.75v-2a.75.75 0 011.194-.605l3.75 2.75a.75.75 0 010 1.21l-3.75 2.75A.75.75 0 019.75 8.25v-2h-2.2c-.852 0-1.447 0-1.91.038-.453.037-.714.107-.911.207a2.25 2.25 0 00-.984.984c-.226.444-.245.82-.245 2.571v1.2a.75.75 0 01-.75.75zm18.5 0a.75.75 0 01.75.75v1.393c0 1.482.001 2.255-.409 3.06a3.75 3.75 0 01-1.639 1.638c-.444.227-.924.321-1.47.366-.531.043-1.187.043-2 .043H8.25v2a.75.75 0 01-1.194.605l-3.75-2.75a.75.75 0 010-1.21l3.75-2.75a.75.75 0 011.194.605v2h8.2c.852 0 1.447 0 1.91-.038.453-.038.714-.107.912-.207.423-.216.767-.56.983-.983.226-.445.245-.82.245-2.572v-1.2a.75.75 0 01.75-.75zm.37-9.903a.75.75 0 01.38.653v5.5a.75.75 0 01-1.5 0V4.075l-1.364.818a.75.75 0 01-.772-1.286l2.5-1.5a.75.75 0 01.755-.01z"/></svg>
